X:23
T:Caprice #5
C:Paganini
N:TabEdited by Ken Yearick
L:1/8
Q:1/4=140
M:4/4
K:C
z8 | A/c/e/c/ B/d/e/d/ c/a/g/f/ e/d/c/B/ | A/c/e/c/ B/d/e/d/ c/a/g/f/ e/d/c/B/ | 
A/^c/e/c/ a/g/f/e/ c/d/b/a/ g/f/e/d/ | c/B/A/G/ ^F/G/A/=F/ E/G/c/E/ D/F/B/D/ | 
C/E/A/C/ B,/D/G/B,/ A,/C/F/A,/ ^G,/C/F/G,/ | G,/B,/E/B,/ C/E/G/c/ D/F/B/d/ E/G/c/e/ | 
F/A/c/f/ ^F/^d/c/A/ G/g/e/c/ G/f/=d/B/ | A/c'/b/a/ g/f/e/c/ f/b/a/g/ ^f/e/^d/B/ | 
e/a/g/f/ e/d/^c/A/ d/g/f/e/ d/=c/B/G/ | c/f/e/d/ c/B/A/G/ ^F/A/c/^d/ ^f/a/c'/f/ | 
c'/g/e/c/ G/E/C/A,/ b/g/d/B/ G/D/B,/G,/ | C8 | z8 | z8 | z8 | 
 

